X:1
T:Cor Aoife n\'o Cor na gCl\'airse\'oir
T:Eva's Reel or The Harpist's Reel
M:C
L:1/8
C:Antaine \'O h\'Og\'ain
T:(For Evangeline, on the occasion of her 21st birthday)
Z:for his friend Evangeline's 21st birthday, 12/23/01
K:D Major
   dcde defd  | BAFD AGAB  | ABAF DD2B | dcde deab  |
   aafd gagf  | gfae ee-e2 | dcde defd | BAFD AGAB  |
   ABAF DD2B  | dcde def2  | dcBA gfge | fgfd d d3 :|
|: Bc2 Bc2 de | fed2 efdB  | AFDA GBB2 | ef2 ef2 ga |
   bag2 efdB  | AFDA GEE2  | ecAB AGec | AFD2 AGAB  |
   ABAF DD2B  | dcde deab  | aafd gagf | gfad d d3 :|
